!! 00000] TT[WS
!!!OTL: Mengjun shang qianxian
!!!ARE: Asia, China, Shanxi Linxian
!! Ethnic Group: Han
!! WII, 230 (2)
!!!SCT: J0743
!!!YEM: Copyright 1995, estate of Helmut Schaffrath.
**kern
*ICvox
*Ivox
*M2/4
*k[b-]
*F:
{8g
8e
8d
8c
=1
8.cc
16dd
8a
8cc
=2
8ff
16ff
16dd
16cc
16dd
16cc
16a
=3
2g}
=4
{8a
16g
16a
4cc
=5
4ff
8dd
8cc
=6
8cc
8a
16g
16a
16g
16d
=7
2c}
=8
{8d
16c
16d
8f
8f
=9
8g
8a
8cc
8a
=10
8g
8a
8g
8c
=11
2d}
=12
{8ff
8ff
8dd
8cc
=13
8cc
8f
8g
8dd
=14
8cc
16g
16a
8f
8d
=15
2c}
==
!!!AGN: Xiaodiao. XÅshi, Xinminge
!!!ONB: ESAC (Essen Associative Code) Database: CHINA
!!!AMT: simple duple
!!!AIN: vox
!!!EED: Helmut Schaffrath
!!!EEV: 1.0
*-
